img/svg/industry-ico-48.svg

<svg width="48" height="48" viewBox="0 0 48 48" fill="none" xmlns="http://www.w3.org/2000/svg">
<path d="M20.2927 16.033C20.2985 16.033 20.3044 16.0329 20.3102 16.0328C20.871 16.0234 21.318 15.561 21.3085 15.0002C21.3084 14.9918 21.319 14.1371 21.8685 13.5782C22.2254 13.2153 22.7717 13.0312 23.4965 13.0312C23.4989 13.0312 23.5015 13.0312 23.504 13.0312C24.2467 13.0312 25.2009 13.487 26.3052 14.0146C27.8508 14.753 29.7742 15.6718 32.0181 15.6718H32.0556C34.188 15.6718 36.0027 14.4717 36.91 12.4616C37.1408 11.9503 36.9134 11.3488 36.4022 11.118C35.891 10.8872 35.2894 11.1146 35.0586 11.6259C34.2378 13.4443 32.685 13.6406 32.0556 13.6406H32.0181C30.2345 13.6406 28.6821 12.899 27.1808 12.1818C25.9087 11.5741 24.7069 11 23.5078 11C22.2153 10.997 21.1761 11.3853 20.4202 12.1542C19.2818 13.3119 19.2746 14.8618 19.2776 15.0346C19.2869 15.5896 19.7397 16.0331 20.2927 16.033Z" fill="#E0E0E0"/>
<path d="M36.6439 17.134C36.2175 16.7697 35.5764 16.8201 35.212 17.2466C34.57 17.9983 33.9961 17.884 32.8616 17.5769C32.2911 17.4224 31.7009 17.2627 31.0751 17.2947C30.2595 17.3365 29.5755 17.7017 29.0423 18.3802C28.6957 18.8212 28.7723 19.4597 29.2133 19.8063C29.3994 19.9526 29.6205 20.0234 29.8401 20.0234C30.1411 20.0234 30.4391 19.8903 30.6394 19.6353C30.9491 19.2414 31.1863 19.2276 32.3308 19.5375C33.4939 19.8524 35.2512 20.3282 36.7565 18.5659C37.1208 18.1394 37.0704 17.4983 36.6439 17.134Z" fill="#E0E0E0"/>
<path d="M36.4957 34.08C36.3414 33.5407 35.7791 33.2285 35.24 33.3829C34.7007 33.5371 34.3886 34.0993 34.5428 34.6386L34.6372 34.9687H29.5473L27.7039 28.2656H29.1795C29.7404 28.2656 30.1951 27.8109 30.1951 27.25C30.1951 26.6891 29.7404 26.2344 29.1795 26.2344H27.1453L26.447 23.6953H32.2263V26.3982C32.2263 26.4927 32.2395 26.5867 32.2654 26.6775L33.2645 30.1698C33.392 30.6158 33.7985 30.9064 34.2404 30.9064C34.3329 30.9064 34.4269 30.8937 34.5202 30.8669C35.0595 30.7127 35.3716 30.1505 35.2174 29.6112L34.2575 26.2558V22.6796C34.2575 22.1187 33.8028 21.664 33.2419 21.664H26.4373V18.6172C26.4373 18.0563 25.9826 17.6016 25.4217 17.6016H15.3671C14.8062 17.6016 14.3515 18.0563 14.3515 18.6172V23.71L11.0366 35.7139C10.9522 36.0195 11.0155 36.3471 11.2075 36.5994C11.3996 36.8517 11.6985 36.9998 12.0157 36.9998H35.9841C36.3029 36.9998 36.6032 36.8501 36.7951 36.5957C36.987 36.3412 37.0483 36.0113 36.9606 35.7049L36.4957 34.08ZM13.3496 34.9686L15.9019 25.7265H21.3593C21.9202 25.7265 22.3749 25.2718 22.3749 24.7109C22.3749 24.15 21.9202 23.6953 21.3593 23.6953H16.3827V19.6328H24.4061V23.7968C24.4061 23.8878 24.4183 23.9784 24.4424 24.0661L27.4406 34.9686H13.3496Z" fill="#E0E0E0"/>
<path d="M16.6301 16.0274C16.649 16.0274 16.6681 16.0269 16.6873 16.0258C17.2473 15.9947 17.6761 15.5155 17.645 14.9554C17.6442 14.9421 17.5917 13.5902 18.3438 12.6501C18.6941 12.2121 18.6231 11.573 18.1851 11.2226C17.7471 10.8722 17.108 10.9432 16.7576 11.3812C15.5138 12.9361 15.6121 14.9818 15.6169 15.0681C15.647 15.609 16.095 16.0275 16.6301 16.0274Z" fill="#E0E0E0"/>
</svg>

<svg width="48" height="48" fill="none" xmlns="http://www.w3.org/2000/svg"><path d="M20.293 16.033A1.021 1.021 0 0021.308 15c0-.008.011-.863.56-1.422.357-.363.904-.547 1.629-.547h.007c.743 0 1.697.456 2.801.984 1.546.738 3.47 1.657 5.713 1.657h.038c2.132 0 3.947-1.2 4.854-3.21a1.016 1.016 0 10-1.851-.836c-.821 1.818-2.374 2.015-3.003 2.015h-.038c-1.784 0-3.336-.742-4.837-1.46C25.909 11.575 24.707 11 23.508 11c-1.293-.003-2.332.385-3.088 1.154-1.138 1.158-1.145 2.708-1.142 2.88.009.556.462 1 1.015.999zm16.351 1.101a1.016 1.016 0 00-1.432.113c-.642.751-1.216.637-2.35.33-.57-.155-1.161-.314-1.787-.282-.816.041-1.5.407-2.033 1.085a1.016 1.016 0 001.597 1.255c.31-.394.547-.407 1.692-.098 1.163.315 2.92.791 4.425-.971a1.016 1.016 0 00-.112-1.432z" fill="#E0E0E0"/><path d="M36.496 34.08a1.015 1.015 0 10-1.953.559l.094.33h-5.09l-1.843-6.703h1.476a1.016 1.016 0 000-2.032h-2.035l-.698-2.539h5.78v2.703c0 .095.013.189.038.28l1 3.492a1.016 1.016 0 101.952-.559l-.96-3.355V22.68c0-.561-.454-1.016-1.015-1.016h-6.805v-3.047c0-.56-.454-1.015-1.015-1.015H15.367c-.56 0-1.016.454-1.016 1.015v5.093l-3.314 12.004A1.016 1.016 0 0012.016 37h23.968a1.016 1.016 0 00.977-1.295l-.465-1.625zm-23.146.889l2.552-9.242h5.457a1.016 1.016 0 000-2.032h-4.976v-4.062h8.023v4.164c0 .09.012.181.036.27l2.999 10.902H13.35zm3.28-18.942a1.016 1.016 0 001.015-1.072c0-.013-.053-1.365.699-2.305a1.016 1.016 0 00-1.586-1.269c-1.244 1.555-1.146 3.6-1.141 3.687.03.541.478.96 1.013.96z" fill="#E0E0E0"/></svg>
